dist/files/common/section-icon-install.svg

<svg width="96" height="96" viewBox="0 0 96 96" fill="none" xmlns="http://www.w3.org/2000/svg">
<path fill-rule="evenodd" clip-rule="evenodd" d="M10.6281 8.70011C14.4601 7.92011 18.3481 7.41211 22.2521 7.18011C28.1641 6.78011 34.2361 6.82011 40.0321 6.90011C45.8241 6.98011 50.7361 6.90011 56.0121 6.90011C59.6041 6.90011 63.1601 6.90011 66.7161 7.18011C72.4281 7.42011 78.1841 7.90011 83.9761 8.50011V21.6041C83.9761 24.3641 84.2161 27.0761 84.3761 29.8321C84.5761 33.8321 84.8561 38.1041 84.8561 42.2561C84.819 42.4688 84.8289 42.687 84.8851 42.8954C84.9412 43.1039 85.0423 43.2975 85.1813 43.4627C85.3202 43.628 85.4936 43.7608 85.6893 43.852C85.885 43.9431 86.0982 43.9903 86.3141 43.9903C86.53 43.9903 86.7432 43.9431 86.9389 43.852C87.1346 43.7608 87.308 43.628 87.4469 43.4627C87.5859 43.2975 87.687 43.1039 87.7431 42.8954C87.7993 42.687 87.8092 42.4688 87.7721 42.2561C88.3321 38.2641 88.8121 34.2681 88.9721 29.9521C89.0681 28.1814 89.0681 26.4108 88.9721 24.6401C88.9721 22.8801 88.8521 21.1228 88.6121 19.3681C88.1321 15.3681 87.2521 11.3761 86.3721 7.38011C86.2242 6.98917 85.9993 6.63193 85.7107 6.32959C85.4221 6.02725 85.0757 5.78598 84.6921 5.62011C75.8531 4.01684 66.9311 2.9111 57.9681 2.30811C52.0561 1.94811 46.0241 1.94811 40.0721 2.06811C34.1161 2.18811 28.0841 2.78811 21.8921 3.66811C17.848 4.25089 13.8452 5.09127 9.9081 6.18411C9.70489 6.24288 9.51878 6.34963 9.36545 6.49537C9.21211 6.64111 9.09605 6.82156 9.02705 7.02153C8.95804 7.2215 8.9381 7.43513 8.96891 7.64441C8.99973 7.8537 9.08039 8.05251 9.2041 8.22411C9.36108 8.44331 9.58327 8.60735 9.83898 8.69283C10.0947 8.7783 10.3709 8.78085 10.6281 8.70011ZM95.7601 60.5961C95.7677 58.239 95.5669 55.8858 95.1601 53.5641C94.8907 52.1711 94.2557 50.8748 93.3201 49.8081C92.5272 49.064 91.571 48.516 90.5281 48.2081C88.7862 47.7402 87.0079 47.4204 85.2121 47.2521C82.4857 47.0717 79.7505 47.0717 77.0241 47.2521C73.0006 47.5199 68.998 48.0409 65.0401 48.8121C64.7856 48.8641 64.5584 49.0061 64.4001 49.2121C64.3177 49.1085 64.2148 49.023 64.0977 48.961C63.9807 48.899 63.8521 48.862 63.7201 48.8521C63.554 48.8298 63.3852 48.8415 63.2237 48.8863C63.0622 48.9311 62.9115 49.0082 62.7807 49.1128C62.6498 49.2175 62.5416 49.3476 62.4624 49.4953C62.3832 49.643 62.3348 49.8052 62.3201 49.9721C61.0152 57.9001 60.2548 65.9082 60.0441 73.9401C60.0308 79.3614 60.3241 84.7681 60.9241 90.1601C60.9814 90.5649 61.1347 90.95 61.3713 91.2833C61.6079 91.6167 61.9209 91.8885 62.2841 92.0761C62.9934 92.3881 63.7254 92.6414 64.4801 92.8361L69.6321 93.6761C74.2161 94.1161 78.8321 94.1161 83.4161 93.6761C86.5457 93.3568 89.6132 92.589 92.5241 91.3961C92.7075 91.3344 92.8761 91.2354 93.0193 91.1053C93.1625 90.9752 93.2772 90.8169 93.3562 90.6402C93.4351 90.4636 93.4765 90.2725 93.4779 90.079C93.4793 89.8855 93.4405 89.6939 93.3641 89.5161C93.7178 89.5209 94.0615 89.3989 94.333 89.1722C94.6045 88.9455 94.7858 88.629 94.8441 88.2801C95.5108 83.6961 95.8961 79.0881 96.0001 74.4561C96.0001 69.8241 96.0001 65.1481 95.7601 60.5961ZM83.1361 90.2361C78.7722 90.2849 74.4129 89.9368 70.1121 89.1961L65.8361 88.2801H65.5961C65.2361 84.9241 65.0761 81.4881 64.9161 78.0121C64.7561 74.5361 64.4761 70.0241 64.4761 66.0281C64.4761 60.9561 64.4761 55.9601 64.8361 51.0881C65.0361 51.0881 65.1961 51.2881 65.3961 51.0881C68.6221 50.7492 71.8644 50.589 75.1081 50.6081C78.2721 50.6161 81.4281 50.9401 84.5361 51.5681C85.8854 51.7708 87.2161 52.0641 88.5281 52.4481C89.0539 52.5381 89.549 52.7581 89.9681 53.0881C90.3881 53.7561 90.6241 54.5281 90.6481 55.3201C90.9281 57.3201 90.9281 59.5601 91.0881 60.8361C91.6081 66.1481 92.0481 71.6201 92.2081 77.0961C92.2081 80.7321 92.2081 84.3241 92.0081 87.8801C91.9929 88.1608 92.0626 88.4396 92.2081 88.6801C92.0124 88.6212 91.8038 88.6212 91.6081 88.6801C88.8799 89.6279 86.023 90.1499 83.1361 90.2361Z" fill="#FFE1CD"/>
<path fill-rule="evenodd" clip-rule="evenodd" d="M15.3401 28.3161C15.3001 28.6494 15.3001 28.9827 15.3401 29.3161C15.3175 29.6624 15.3175 30.0098 15.3401 30.3561C16.3001 34.0281 16.9801 34.1481 17.6601 34.1481C18.3401 34.1481 19.0561 34.1481 19.9761 30.1521C20.0179 29.82 20.0179 29.4841 19.9761 29.1521C20.0361 28.8214 20.0361 28.4827 19.9761 28.1521C18.8961 24.1601 17.7761 24.5201 17.6961 24.5201C16.6161 24.6001 15.4601 28.0361 15.3401 28.3161ZM73.6681 30.3521C73.7081 30.0054 73.7081 29.6587 73.6681 29.3121C73.7281 28.9814 73.7281 28.6427 73.6681 28.3121C73.6681 27.9161 72.3881 24.6001 71.2281 24.6801C71.2281 24.6801 70.0721 24.2801 68.9921 28.3161C68.9521 28.6494 68.9521 28.9827 68.9921 29.3161C68.9521 29.6467 68.9521 29.9801 68.9921 30.3161C69.9121 34.0281 70.5921 34.3081 71.2721 34.3081C71.9521 34.3081 72.7121 34.0281 73.6681 30.3521ZM23.1321 39.3801L19.1321 37.4241C18.9945 37.1366 18.7546 36.9108 18.4593 36.7908C18.164 36.6708 17.8346 36.6653 17.5355 36.7753C17.2364 36.8854 16.9891 37.1031 16.842 37.3858C16.6949 37.6685 16.6585 37.996 16.7401 38.3041C16.6942 38.8822 16.7662 39.4636 16.9519 40.013C17.1375 40.5624 17.4329 41.0683 17.8201 41.5001C18.1213 41.89 18.52 42.1935 18.9761 42.3801C19.385 42.5938 19.8352 42.7166 20.2961 42.7401C21.2721 42.7961 22.2561 42.6441 23.1721 42.3001C23.415 42.299 23.654 42.2381 23.8679 42.1227C24.0817 42.0074 24.2639 41.8412 24.3983 41.6388C24.5327 41.4364 24.6152 41.204 24.6386 40.9622C24.6619 40.7203 24.6253 40.4764 24.5321 40.2521C24.4161 39.9808 24.2197 39.7517 23.9693 39.5958C23.7189 39.4398 23.4266 39.3645 23.1321 39.3801ZM65.9201 42.3001C66.8361 42.6441 67.8161 42.7961 68.7921 42.7401C69.2541 42.7248 69.7062 42.6015 70.1121 42.3801C70.5871 42.2059 71.0031 41.9008 71.3121 41.5001C72.0761 40.6201 72.4641 39.4681 72.3921 38.3001C72.4496 38.1398 72.475 37.9699 72.4668 37.7998C72.4586 37.6298 72.4171 37.4631 72.3444 37.3091C72.2718 37.1551 72.1696 37.017 72.0436 36.9025C71.9176 36.7881 71.7703 36.6996 71.6101 36.6421C71.4498 36.5845 71.2799 36.5591 71.1098 36.5673C70.9398 36.5755 70.7731 36.6171 70.6191 36.6897C70.4651 36.7623 70.327 36.8645 70.2125 36.9905C70.0981 37.1165 70.0096 37.2638 69.9521 37.4241L65.9561 39.3841C65.571 39.3839 65.2011 39.5338 64.9248 39.8019C64.6485 40.07 64.4875 40.4352 64.4761 40.8201C64.4856 41.2028 64.6392 41.5677 64.9062 41.8421C65.1731 42.1165 65.5378 42.28 65.9201 42.3001ZM20.0961 14.6521C19.6353 14.6755 19.185 14.7983 18.7761 15.0121C18.3576 15.2654 18.0128 15.624 17.7761 16.0521C16.7361 17.3321 16.1001 20.0441 17.4561 20.7241C17.6081 20.7892 17.7717 20.8233 17.9371 20.8243C18.1026 20.8252 18.2666 20.7931 18.4194 20.7297C18.5722 20.6664 18.7108 20.573 18.827 20.4553C18.9432 20.3375 19.0347 20.1977 19.0961 20.0441L23.0921 18.0881C23.2845 18.0934 23.4761 18.0601 23.6554 17.9901C23.8348 17.9202 23.9983 17.815 24.1362 17.6807C24.2742 17.5464 24.3839 17.3859 24.4587 17.2085C24.5336 17.0312 24.5721 16.8406 24.5721 16.6481C24.6121 14.6921 21.0121 14.6121 20.0921 14.6521M65.9201 18.0081C65.9201 18.0081 69.9121 19.9281 69.9121 19.9681C70.0288 20.2916 70.2692 20.5556 70.5805 20.7019C70.8918 20.8481 71.2485 20.8648 71.5721 20.7481C71.8956 20.6314 72.1596 20.3909 72.3059 20.0796C72.4521 19.7683 72.4688 19.4116 72.3521 19.0881C72.3917 18.5098 72.3167 17.9295 72.1313 17.3803C71.946 16.8312 71.654 16.324 71.2721 15.8881C70.9626 15.4888 70.5466 15.1851 70.0721 15.0121C69.6662 14.7906 69.2141 14.6673 68.7521 14.6521C67.7732 14.5957 66.7933 14.7456 65.8761 15.0921C65.4867 15.1022 65.1161 15.2614 64.8407 15.5367C64.5653 15.8121 64.4062 16.1827 64.3961 16.5721C64.4002 16.7666 64.4429 16.9584 64.5218 17.1362C64.6007 17.3141 64.7142 17.4745 64.8556 17.6081C64.997 17.7417 65.1636 17.8459 65.3457 17.9145C65.5277 17.9832 65.7256 18.015 65.9201 18.0081ZM56.4881 14.2921C55.6649 14.2067 54.8352 14.2067 54.0121 14.2921C54.0121 14.2921 48.5001 15.0921 48.5801 16.8121C48.5801 17.2921 48.3801 18.0521 53.4121 19.0481C53.9321 19.1067 54.4521 19.1067 54.9721 19.0481H56.5321C62.0041 18.1681 61.6441 17.0081 61.6441 16.5281C61.6441 16.0481 61.1641 15.0121 56.4881 14.2921ZM43.5041 16.4521C43.5041 15.4921 43.0641 15.0121 38.3921 14.2921C37.5673 14.2118 36.7368 14.2118 35.9121 14.2921C35.9121 14.2921 30.4001 15.0921 30.4801 16.8121C30.4801 17.2921 30.4801 18.0481 35.3161 19.0481C35.8361 19.1067 36.3561 19.1067 36.8761 19.0481H38.4321C44.0641 18.0881 43.5441 16.9321 43.5041 16.4521ZM60.6041 40.5401C60.6041 39.6201 60.1641 39.1001 55.4921 38.4201C54.6684 38.3211 53.8358 38.3211 53.0121 38.4201C53.0121 38.4201 47.4601 39.1801 47.5801 40.9401C47.5801 41.3801 47.3801 42.1401 52.4161 43.1401C52.9334 43.1961 53.4534 43.1961 53.9761 43.1401H55.5321C61.0041 42.1801 60.6441 41.0601 60.6041 40.5401ZM42.5081 40.5401C42.5081 39.6201 42.0681 39.1001 37.3521 38.4201C36.5431 38.3208 35.725 38.3208 34.9161 38.4201C34.9161 38.4201 29.3641 39.1801 29.4441 40.9401C29.4441 41.3801 29.4441 42.1401 34.3161 43.1401C34.8227 43.1961 35.3294 43.1961 35.8361 43.1401C36.3694 43.1801 36.9027 43.1801 37.4361 43.1401C42.8681 42.1801 42.5481 41.0601 42.5081 40.5401Z" fill="#FFE1CD"/>
<path fill-rule="evenodd" clip-rule="evenodd" d="M74.468 58.5602C73.2735 58.0882 71.9901 57.8834 70.708 57.9602C69.9529 58.04 69.2489 58.3793 68.716 58.9202C68.1391 59.5198 67.7636 60.2844 67.6417 61.1075C67.5198 61.9305 67.6577 62.7711 68.036 63.5122C68.0362 63.7699 68.1142 64.0216 68.2598 64.2343C68.4054 64.447 68.6118 64.6108 68.852 64.7042C69.0108 64.7675 69.1813 64.7961 69.352 64.7882C71.312 64.7882 68.672 63.3122 74.668 61.4722C75.0387 61.442 75.3844 61.2734 75.6364 60.9999C75.8884 60.7264 76.0282 60.3681 76.028 59.9962C76.0365 59.7944 76.0009 59.5931 75.9238 59.4064C75.8466 59.2197 75.7298 59.052 75.5814 58.915C75.433 58.778 75.2565 58.6749 75.0642 58.613C74.872 58.551 74.6685 58.5316 74.468 58.5562M86.892 58.5602C86.079 58.057 85.1241 57.8323 84.172 57.9202C83.1088 58.1496 82.0676 58.4708 81.06 58.8802C80.8922 58.8697 80.7239 58.8923 80.5648 58.9469C80.4058 59.0014 80.259 59.0867 80.1329 59.1979C80.0068 59.3092 79.9038 59.4442 79.8299 59.5952C79.756 59.7463 79.7125 59.9104 79.702 60.0782C79.6915 60.246 79.7141 60.4143 79.7687 60.5734C79.8232 60.7324 79.9085 60.8792 80.0198 61.0053C80.131 61.1314 80.266 61.2344 80.417 61.3083C80.5681 61.3822 80.7322 61.4257 80.9 61.4362C85.972 63.5922 85.772 62.6362 86.252 63.5922C86.2761 63.7808 86.3383 63.9626 86.435 64.1263C86.5316 64.2901 86.6606 64.4325 86.814 64.5448C86.9675 64.6571 87.1422 64.7369 87.3275 64.7794C87.5129 64.822 87.7049 64.8263 87.892 64.7922C88.2709 64.7328 88.6119 64.5286 88.8433 64.2227C89.0746 63.9167 89.1781 63.533 89.132 63.1522C89.2901 62.2478 89.1586 61.3167 88.7564 60.4914C88.3542 59.6661 87.7017 58.9889 86.892 58.5562M69.472 76.3762C70.027 76.705 70.6683 76.8583 71.312 76.8162C72.3307 76.7095 73.3293 76.4962 74.308 76.1762C74.6537 76.1188 74.9679 75.9405 75.1945 75.6731C75.4211 75.4058 75.5455 75.0667 75.5455 74.7162C75.5455 74.3657 75.4211 74.0266 75.1945 73.7592C74.9679 73.4919 74.6537 73.3136 74.308 73.2562C72.348 72.6602 71.428 73.2562 70.828 70.9442C70.8616 70.6907 70.8182 70.4329 70.7035 70.2043C70.5888 69.9757 70.4081 69.7868 70.1848 69.6622C69.9614 69.5376 69.7058 69.483 69.451 69.5055C69.1962 69.5279 68.9541 69.6264 68.756 69.7882C68.4874 70.006 68.3151 70.3206 68.276 70.6642C68.036 71.1042 67.876 71.5442 67.636 72.0642C67.396 72.5842 67.636 72.9402 67.396 73.4202C67.4343 74.0574 67.6491 74.6713 68.0165 75.1934C68.3838 75.7154 68.8852 76.125 69.472 76.3762ZM80.66 76.2562C81.572 76.7042 82.5173 77.0642 83.496 77.3362C84.304 77.4922 85.14 77.3922 85.896 77.0562C87.688 76.2562 89.048 75.0162 88.608 72.7802C88.6302 72.5909 88.6146 72.3991 88.5621 72.2158C88.5097 72.0326 88.4213 71.8616 88.3023 71.7128C88.1832 71.5639 88.0358 71.4402 87.8685 71.3488C87.7013 71.2574 87.5176 71.2001 87.328 71.1802C85.852 71.1802 87.328 72.3402 83.576 73.1802C82.5796 73.2727 81.5906 73.4331 80.616 73.6602C80.3088 73.7115 80.0298 73.8701 79.8286 74.1078C79.6274 74.3454 79.5169 74.6468 79.5169 74.9582C79.5169 75.2696 79.6274 75.5709 79.8286 75.8086C80.0298 76.0463 80.3088 76.2049 80.616 76.2562H80.66ZM56.288 59.9962C50.256 59.4762 44.304 58.9162 38.112 58.6362C35.512 58.6362 32.96 58.3962 30.324 58.3562H22.532C16.62 58.3562 10.748 58.9562 4.796 59.2762V48.3722C4.796 45.4122 4.796 42.4162 5.116 39.4602C5.436 36.5042 5.476 33.5082 5.716 30.5122C6.212 23.5522 7.2 16.6402 8.668 9.82019C8.76641 9.45427 8.71662 9.0643 8.52943 8.73484C8.34224 8.40537 8.03272 8.16298 7.668 8.06019C7.4844 8.01275 7.29324 8.00204 7.10549 8.02868C6.91775 8.05531 6.73711 8.11877 6.57395 8.2154C6.41079 8.31203 6.26832 8.43994 6.15473 8.59178C6.04113 8.74361 5.95864 8.91639 5.912 9.10019C3.80621 15.9598 2.2309 22.9711 1.2 30.0722C0.76 33.1122 0.48 36.0242 0.12 39.2202C-0.04 42.2975 -0.04 45.3749 0.12 48.4522C0.12 48.9722 1.32 71.3002 4.116 71.1802C5.956 71.1802 7.832 71.1802 9.668 71.4602C14.104 71.8202 18.496 72.5002 22.852 72.9802C25.412 72.9802 27.964 73.2202 30.56 73.3402L27.088 79.9722C26.6202 80.8379 26.2061 81.7316 25.848 82.6482C25.6369 83.1503 25.597 83.7078 25.7343 84.2349C25.8717 84.7619 26.1787 85.229 26.608 85.5642C27.636 86.2682 28.808 86.7322 30.044 86.9242C32.218 87.1804 34.4081 87.274 36.596 87.2042H53.292C54.052 87.2042 56.212 85.4042 55.972 84.4042C56.052 83.0735 56.052 81.7429 55.972 80.4122C55.9201 79.8693 55.8129 79.3332 55.652 78.8122C55.4942 78.2769 55.2935 77.7552 55.052 77.2522C54.4734 76.0635 53.7908 74.9284 53.012 73.8602C52.9153 73.5918 52.7411 73.3583 52.5115 73.1891C52.2818 73.0199 52.0071 72.9227 51.7222 72.9098C51.4372 72.897 51.1549 72.969 50.9109 73.1169C50.667 73.2647 50.4725 73.4816 50.352 73.7402C50.1871 74.0917 50.167 74.494 50.296 74.8602C50.496 76.1362 50.496 77.2922 50.656 78.5722C50.6907 79.1029 50.784 79.6229 50.936 80.1322C51.056 80.6415 51.2293 81.1349 51.456 81.6122C51.8773 82.4922 52.3707 83.3295 52.936 84.1242C49.776 83.6442 46.58 83.2042 43.384 82.8442C41.148 82.6042 38.872 82.4442 36.636 82.2882H30.96C30.9359 82.0354 30.9359 81.781 30.96 81.5282L33.44 73.5402H35.756C42.348 73.5402 48.9 73.1802 55.492 72.6202C55.8377 72.5628 56.1519 72.3845 56.3785 72.1171C56.6051 71.8498 56.7295 71.5107 56.7295 71.1602C56.7295 70.8097 56.6051 70.4706 56.3785 70.2032C56.1519 69.9359 55.8377 69.7576 55.492 69.7002C52.252 69.7002 49.02 69.7002 45.784 69.4242C42.544 69.1442 38.192 68.9042 34.436 68.7042C30.68 68.5042 26.848 68.3842 23.012 68.2242C19.176 68.0642 15.42 68.2242 11.624 68.2242C9.508 68.2242 7.632 68.2242 5.352 68.5842C5.152 66.3842 5.072 64.1922 4.992 61.9922C10.868 62.3922 16.66 62.8722 22.532 63.1522C25.132 63.1522 27.724 63.1522 30.52 63.3522H38.032C44.064 63.3522 50.016 63.0722 56.168 63.0322C56.5137 62.9748 56.8279 62.7965 57.0545 62.5291C57.2811 62.2618 57.4055 61.9227 57.4055 61.5722C57.4055 61.2217 57.2811 60.8826 57.0545 60.6152C56.8279 60.3479 56.5137 60.1696 56.168 60.1122L56.288 59.9962Z" fill="#FFE1CD"/>
</svg>

<svg xmlns="http://www.w3.org/2000/svg" fill="none" viewBox="0 0 96 96"><path fill="#ffe1cd" fill-rule="evenodd" d="M10.628 8.7a83 83 0 0 1 11.624-1.52c5.912-.4 11.984-.36 17.78-.28 5.792.08 10.704 0 15.98 0 3.592 0 7.148 0 10.704.28 5.712.24 11.468.72 17.26 1.32v13.104c0 2.76.24 5.472.4 8.228.2 4 .48 8.272.48 12.424a1.48 1.48 0 1 0 2.916 0c.56-3.992 1.04-7.988 1.2-12.304q.144-2.655 0-5.312 0-2.64-.36-5.272c-.48-4-1.36-7.992-2.24-11.988a3.12 3.12 0 0 0-1.68-1.76 240 240 0 0 0-26.724-3.312c-5.912-.36-11.944-.36-17.896-.24-5.956.12-11.988.72-18.18 1.6A96 96 0 0 0 9.908 6.184a1.32 1.32 0 0 0-.704 2.04 1.28 1.28 0 0 0 1.424.476M95.76 60.596a40 40 0 0 0-.6-7.032 8 8 0 0 0-1.84-3.756 6.96 6.96 0 0 0-2.792-1.6 32 32 0 0 0-5.316-.956 62 62 0 0 0-8.188 0 96 96 0 0 0-11.984 1.56 1.08 1.08 0 0 0-.64.4.96.96 0 0 0-.68-.36 1.24 1.24 0 0 0-1.4 1.12 176 176 0 0 0-2.276 23.968q-.02 8.132.88 16.22a2.56 2.56 0 0 0 1.36 1.916q1.064.468 2.196.76l5.152.84c4.584.44 9.2.44 13.784 0a32.8 32.8 0 0 0 9.108-2.28 1.4 1.4 0 0 0 .84-1.88 1.48 1.48 0 0 0 1.48-1.236A114 114 0 0 0 96 74.456c0-4.632 0-9.308-.24-13.86m-12.624 29.64c-4.364.049-8.723-.3-13.024-1.04l-4.276-.916h-.24c-.36-3.356-.52-6.792-.68-10.268s-.44-7.988-.44-11.984c0-5.072 0-10.068.36-14.94.2 0 .36.2.56 0 3.226-.339 6.468-.499 9.712-.48 3.164.008 6.32.332 9.428.96q2.025.304 3.992.88a3.2 3.2 0 0 1 1.44.64c.42.668.656 1.44.68 2.232.28 2 .28 4.24.44 5.516.52 5.312.96 10.784 1.12 16.26 0 3.636 0 7.228-.2 10.784a1.4 1.4 0 0 0 .2.8 1.04 1.04 0 0 0-.6 0 28.4 28.4 0 0 1-8.472 1.556" clip-rule="evenodd"/><path fill="#ffe1cd" fill-rule="evenodd" d="M15.34 28.316q-.06.5 0 1a8 8 0 0 0 0 1.04c.96 3.672 1.64 3.792 2.32 3.792s1.396 0 2.316-3.996a4 4 0 0 0 0-1 2.8 2.8 0 0 0 0-1c-1.08-3.992-2.2-3.632-2.28-3.632-1.08.08-2.236 3.516-2.356 3.796m58.328 2.036q.06-.52 0-1.04a2.8 2.8 0 0 0 0-1c0-.396-1.28-3.712-2.44-3.632 0 0-1.156-.4-2.236 3.636q-.06.5 0 1-.06.496 0 1c.92 3.712 1.6 3.992 2.28 3.992s1.44-.28 2.396-3.956M23.132 39.38l-4-1.956a1.28 1.28 0 0 0-2.392.88 4.28 4.28 0 0 0 1.08 3.196c.301.39.7.694 1.156.88.409.214.86.337 1.32.36a7.05 7.05 0 0 0 2.876-.44 1.48 1.48 0 0 0 1.36-2.048 1.44 1.44 0 0 0-1.4-.872M65.92 42.3a7 7 0 0 0 2.872.44 2.96 2.96 0 0 0 1.32-.36c.475-.174.891-.48 1.2-.88a4.47 4.47 0 0 0 1.08-3.2 1.296 1.296 0 0 0-2.44-.876l-3.996 1.96a1.48 1.48 0 0 0-1.48 1.436 1.52 1.52 0 0 0 1.444 1.48M20.096 14.652c-.46.024-.911.146-1.32.36a2.8 2.8 0 0 0-1 1.04c-1.04 1.28-1.676 3.992-.32 4.672a1.24 1.24 0 0 0 1.64-.68l3.996-1.956a1.44 1.44 0 0 0 1.48-1.44c.04-1.956-3.56-2.036-4.48-1.996m45.828 3.356s3.992 1.92 3.992 1.96a1.297 1.297 0 0 0 2.44-.88 4.4 4.4 0 0 0-1.08-3.2 2.7 2.7 0 0 0-1.2-.876 2.96 2.96 0 0 0-1.32-.36 7 7 0 0 0-2.876.44 1.52 1.52 0 0 0-1.48 1.48 1.467 1.467 0 0 0 1.524 1.436m-9.432-3.716a12 12 0 0 0-2.476 0s-5.512.8-5.432 2.52c0 .48-.2 1.24 4.832 2.236q.78.088 1.56 0h1.56c5.472-.88 5.112-2.04 5.112-2.52s-.48-1.516-5.156-2.236m-12.984 2.16c0-.96-.44-1.44-5.112-2.16-.825-.08-1.655-.08-2.48 0 0 0-5.512.8-5.432 2.52 0 .48 0 1.236 4.836 2.236q.78.088 1.56 0h1.556c5.632-.96 5.112-2.116 5.072-2.596m17.1 24.088c0-.92-.44-1.44-5.112-2.12a10.4 10.4 0 0 0-2.48 0s-5.552.76-5.432 2.52c0 .44-.2 1.2 4.836 2.2a7.3 7.3 0 0 0 1.56 0h1.556c5.472-.96 5.112-2.08 5.072-2.6m-18.096 0c0-.92-.44-1.44-5.156-2.12-.809-.1-1.627-.1-2.436 0 0 0-5.552.76-5.472 2.52 0 .44 0 1.2 4.872 2.2a7 7 0 0 0 1.52 0q.8.06 1.6 0c5.432-.96 5.112-2.08 5.072-2.6" clip-rule="evenodd"/><path fill="#ffe1cd" fill-rule="evenodd" d="M74.468 58.56a8.8 8.8 0 0 0-3.76-.6 3.28 3.28 0 0 0-1.992.96 4 4 0 0 0-.68 4.592 1.28 1.28 0 0 0 .816 1.192 1.2 1.2 0 0 0 .5.084c1.96 0-.68-1.476 5.316-3.316a1.48 1.48 0 0 0 1.36-1.476 1.392 1.392 0 0 0-1.56-1.44m12.424.004a4.4 4.4 0 0 0-2.72-.64c-1.063.23-2.104.55-3.112.96a1.28 1.28 0 1 0-.16 2.556c5.072 2.156 4.872 1.2 5.352 2.156a1.4 1.4 0 0 0 1.64 1.2 1.48 1.48 0 0 0 1.24-1.64 4.36 4.36 0 0 0-2.24-4.596m-17.42 17.82a3.2 3.2 0 0 0 1.84.44 14.5 14.5 0 0 0 2.996-.64 1.48 1.48 0 0 0 0-2.92c-1.96-.596-2.88 0-3.48-2.312a1.276 1.276 0 0 0-2.072-1.156 1.32 1.32 0 0 0-.48.876c-.24.44-.4.88-.64 1.4s0 .876-.24 1.356a3.44 3.44 0 0 0 2.076 2.956m11.188-.12q1.368.672 2.836 1.08a4.03 4.03 0 0 0 2.4-.28c1.792-.8 3.152-2.04 2.712-4.276a1.44 1.44 0 0 0-1.28-1.6c-1.476 0 0 1.16-3.752 2q-1.496.14-2.96.48a1.315 1.315 0 0 0 0 2.596zm-24.372-16.26c-6.032-.52-11.984-1.08-18.176-1.36-2.6 0-5.152-.24-7.788-.28h-7.792c-5.912 0-11.784.6-17.736.92V48.372c0-2.96 0-5.956.32-8.912s.36-5.952.6-8.948A148.5 148.5 0 0 1 8.668 9.82a1.44 1.44 0 0 0-1-1.76A1.44 1.44 0 0 0 5.912 9.1 140 140 0 0 0 1.2 30.072C.76 33.112.48 36.024.12 39.22a89 89 0 0 0 0 9.232c0 .52 1.2 22.848 3.996 22.728 1.84 0 3.716 0 5.552.28 4.436.36 8.828 1.04 13.184 1.52 2.56 0 5.112.24 7.708.36l-3.472 6.632q-.703 1.3-1.24 2.676a2.48 2.48 0 0 0 .76 2.916 8.34 8.34 0 0 0 3.436 1.36c2.174.256 4.364.35 6.552.28h16.696c.76 0 2.92-1.8 2.68-2.8q.12-1.995 0-3.992a8 8 0 0 0-.32-1.6 10.4 10.4 0 0 0-.6-1.56 22.4 22.4 0 0 0-2.04-3.392 1.44 1.44 0 0 0-2.66-.12 1.48 1.48 0 0 0-.056 1.12c.2 1.276.2 2.432.36 3.712q.052.795.28 1.56.18.765.52 1.48.632 1.32 1.48 2.512c-3.16-.48-6.356-.92-9.552-1.28-2.236-.24-4.512-.4-6.748-.556H30.96a4 4 0 0 1 0-.76l2.48-7.988h2.316c6.592 0 13.144-.36 19.736-.92a1.48 1.48 0 0 0 0-2.92c-3.24 0-6.472 0-9.708-.276-3.24-.28-7.592-.52-11.348-.72s-7.588-.32-11.424-.48-7.592 0-11.388 0c-2.116 0-3.992 0-6.272.36-.2-2.2-.28-4.392-.36-6.592 5.876.4 11.668.88 17.54 1.16 2.6 0 5.192 0 7.988.2h7.512c6.032 0 11.984-.28 18.136-.32a1.48 1.48 0 0 0 0-2.92z" clip-rule="evenodd"/></svg>
